packages/swarm-icons/src/icons/solid/Members.svg

<svg xmlns="http://www.w3.org/2000/svg" width="18" height="18" viewBox="0 0 18 18">
  <path fill="#A2A2A2" d="M7.26355283,12.9285714 L1.5,12.9285714 C1.22385763,12.9285714 1,12.7047138 1,12.4285714 L1,11.7380997 C2.13981451,10.0753474 3.95339365,9 5.99593035,9 C6.80195258,9 7.57232073,9.16745692 8.2797008,9.47238602 C8.58892642,10.2530575 9.13676729,10.9132167 9.83325762,11.3628976 C8.88366402,11.6903508 8.01340103,12.2279477 7.26355283,12.9285714 Z M8.9759499,5.38167486 C8.54457287,5.87946133 8.23405274,6.4848361 8.09003281,7.15215587 C7.54979037,7.67689976 6.81262724,8 6,8 C4.34314575,8 3,6.65685425 3,5 C3,3.34314575 4.34314575,2 6,2 C7.65685425,2 9,3.34314575 9,5 C9,5.12929852 8.99182022,5.25668656 8.9759499,5.38167486 Z M12,11 C10.3431458,11 9,9.65685425 9,8 C9,6.34314575 10.3431458,5 12,5 C13.6568542,5 15,6.34314575 15,8 C15,9.65685425 13.6568542,11 12,11 Z M17,14.75 L17,15.4285714 C17,15.7047138 16.7761424,15.9285714 16.5,15.9285714 L7.5,15.9285714 C7.22385763,15.9285714 7,15.7047138 7,15.4285714 L7,14.7380997 C8.13981451,13.0753474 9.95339365,12 11.9959304,12 C14.0433358,12 15.8606908,13.08048 17,14.75 Z"/>
</svg>

<svg xmlns="http://www.w3.org/2000/svg" width="18" height="18"><path fill="#A2A2A2" d="M7.264 12.929H1.5a.5.5 0 01-.5-.5v-.69C2.14 10.074 3.953 9 5.996 9a5.75 5.75 0 012.284.472c.309.781.857 1.441 1.553 1.89a7.22 7.22 0 00-2.57 1.567zm1.712-7.547a3.987 3.987 0 00-.886 1.77 3 3 0 11.886-1.77zM12 11a3 3 0 110-6 3 3 0 010 6zm5 3.75v.679a.5.5 0 01-.5.5h-9a.5.5 0 01-.5-.5v-.69C8.14 13.074 9.953 12 11.996 12c2.047 0 3.865 1.08 5.004 2.75z"/></svg>
